X: 1
T: the Reel of the Gordon Highlanders
C: Pipe-Major Stuart D. Samson
R: reel
Z: 2010 John Chambers <jc:trillian.mit.edu>
S: Scanned MS of unknown origin, from Malcolm Brown tradtunes 2010-7-22
N: This version has all 4 parts' first endings with | "Bm"c2B2 "E7"B2 :|
M: C|
L: 1/8
K: A
"A"[|]| "A"a2A2 "(A7)"AecA | "D"d2f2 f2ed |1 "A"c2ec "F#m"AecA | "Bm"c2B2 "E7"B2 :|2 "A"c2af "E7"ecdB | "A"c2A2 A2 :|
"B"|: ed | "A"c2ec "(A7)"AecA | "D"d2f2 f2ed |1 "A"c2ec "F#m"AecA | "Bm"c2B2 "E7"B2 :|2 "A"c2af "E7"ecdB | "A"c2A2 A2 :|
"C"|: ce | "A"aaAa       caea | "D"ffad dafa |1 "A"ceaf "F#m"ecBA | "Bm"c2B2 "E7"B2 :|2 "A"ceaf "E7"ecdB | "A"c2A2 A2 :|
"D"|: ed | "A"c2ec "(A7)"AecA | "D"d2fd AfdA |1 "A"c2ec "F#m"AecA | "Bm"c2B2 "E7"B2 :|2 "A"c2af "E7"ecdB | "A"c2A2 A2 :|
